X: 32
T: In myne zynn
N: Derived from Bus3025-In_myne_zynn.krn
C: Antoine Busnoys
%%abc-version 2.0
%%abcx-abcm2ps-target-version 5.9.1 (29 Sep 2008)
%%abc-creator hum2abc beta
%%abcx-conversion-date 2019/02/16 20:26:07
%%abc-edited-by Jesse Rodin
%%abc-edited-by Chris Gage 04-13-2015
%%abcx-initial-encoding-date 2015/05/05/
%%humdrum-veritas 2867609019
%%humdrum-veritas-data 1960046322
%%linebreak <none>
%%barnumbers 0
L: 1/4
M: 2/1
Q: 1/2=120
%%staves [1 2 3 4]
V: 1 clef=treble
V: 2 clef=treble
V: 3 clef=treble-8
V: 4 clef=bass
K: F
[V:1] G8 | 
[V:2] G4B4 | 
[V:3] G4G2G2 | 
[V:4] G,8 | 
[V:1] z8 | 
[V:2] A2A4GF | 
[V:3] d8 | 
[V:4] F,8 | 
[V:1] G4G2G2 | 
[V:2] GFED^C3=B, | 
[V:3] e4g4 | 
[V:4] E,8 | 
[V:1] d8 | 
[V:2] D4F4 | 
[V:3] f2f4ed | 
[V:4] D,8 | 
[V:1] e4g4 | 
[V:2] E8 | 
[V:3] c8 | 
[V:4] z8 | 
[V:1] f2f4ed | 
[V:2] D8 | 
[V:3] z8 | 
[V:4] D,4D,2D,2 | 
[V:1] c8 | 
[V:2] z8 | 
[V:3] z8 | 
[V:4] A,8 | 
[V:1] z8 | 
[V:2] D4D2D2 | 
[V:3] G2B3AB2 | 
[V:4] B,4D4 | 
[V:1] z8 | 
[V:2] A8 | 
[V:3] cBAG^F3E | 
[V:4] C2C4B,A, | 
[V:1] G2B3AB2 | 
[V:2] B4d4 | 
[V:3] G8 | 
[V:4] G,8 | 
[V:1] cBAG^F4 | 
[V:2] c2c4BA | 
[V:3] z8 | 
[V:4] z8 | 
[V:1] G8 | 
[V:2] G8 | 
[V:3] z8 | 
[V:4] G,6E,2- | 
[V:1] z8 | 
[V:2] B4A3G | 
[V:3] g4f2e2 | 
[V:4] E,F,G,2D,2G,2- | 
[V:1] z8 | 
[V:2] F2E2D4 | 
[V:3] d2c2d2f2 | 
[V:4] G,2A,2B,2D2- | 
[V:1] g4f2e2 | 
[V:2] z2G2A2B2 | 
[V:3] e4d2g2- | 
[V:4] D2C2z4 | 
[V:1] d2c2d2f2 | 
[V:2] G4A4- | 
[V:3] gfed/e/f2ed | 
[V:4] z4D4 | 
[V:1] e4d3c | 
[V:2] A8 | 
[V:3] c2B2d4 | 
[V:4] A,4z4 | 
[V:1] BAA2z2d2 | 
[V:2] z8 | 
[V:3] z2f2e2d2 | 
[V:4] D4C2B,2 | 
[V:1] c2B4A2- | 
[V:2] z8 | 
[V:3] f2g2e4 | 
[V:4] A,2G,2A,2C2 | 
[V:1] A2G2A2d2 | 
[V:2] d4c2B2 | 
[V:3] z2d2f2g2 | 
[V:4] B,4A,2G,2 | 
[V:1] c2B3AA2- | 
[V:2] A2G2A2c2 | 
[V:3] e4A4 | 
[V:4] A,2E,2F,4 | 
[V:1] AGG4^F2 :|]|:  
[V:2] B4A4 :|]|:  
[V:3] d8 :|]|:  
[V:4] G,4D,4 :|]|:  
[V:1]  [K:F] [K:clef=treble][M:2/1]c4B4 | 
[V:2]  [K:F] [K:clef=treble][M:2/1]E2A4G2 | 
[V:3]  [K:F] [K:clef=treble-8][M:2/1]z2c2d2e2 | 
[V:4]  [K:F] [K:clef=bass][M:2/1]z8 | 
[V:1] A4z4 | 
[V:2] d3cA4 | 
[V:3] f6f2 | 
[V:4] z4D,4 | 
[V:1] z4z2c2 | 
[V:2] z8 | 
[V:3] f2f2e4 | 
[V:4] A,,2D,4C,2 | 
[V:1] d2e2f4- | 
[V:2] z8 | 
[V:3] d2z2d4- | 
[V:4] G,3F,D,4 | 
[V:1] f2f2f2f2 | 
[V:2] z8 | 
[V:3] d2cBA2d2- | 
[V:4] z4D,4 | 
[V:1] e4d4- | 
[V:2] z8 | 
[V:3] dcc4=BA | 
[V:4] E,4F,4 | 
[V:1] d4z4 | 
[V:2] z8 | 
[V:3] =B4c4 | 
[V:4] G,4A,4 | 
[V:1] d6cB | 
[V:2] F8- | 
[V:3] z8 | 
[V:4] D,8- | 
[V:1] A2d3cc2- | 
[V:2] F4E4 | 
[V:3] z8 | 
[V:4] D,4G,4- | 
[V:1] c2=BA=B4 | 
[V:2] D8 | 
[V:3] g8 | 
[V:4] G,8 | 
[V:1] c8 | 
[V:2] C4z2G2 | 
[V:3] a2g4e2 | 
[V:4] C,8 | 
[V:1] z8 | 
[V:2] A2B2c4- | 
[V:3] d4c2f2 | 
[V:4] z8 | 
[V:1] z8 | 
[V:2] c2c2c2c2 | 
[V:3] e2a4gf | 
[V:4] z8 | 
[V:1] z8 | 
[V:2] B4A2z2 | 
[V:3] gfedc2d2 | 
[V:4] z2G,2A,2B,2 | 
[V:1] z8 | 
[V:2] A6GF | 
[V:3] A4z4 | 
[V:4] C6C2 | 
[V:1] z8 | 
[V:2] E2A3GG2- | 
[V:3] z8 | 
[V:4] C2C2B,4 | 
[V:1] c6Bc | 
[V:2] G2^FEF4 | 
[V:3] z8 | 
[V:4] A,8 | 
[V:1] B4E4 | 
[V:2] G4z4 | 
[V:3] G4c4- | 
[V:4] z4A,4- | 
[V:1] z4E4 | 
[V:2] z8 | 
[V:3] c8- | 
[V:4] A,2G,F,E,2A,2- | 
[V:1] G4A4 | 
[V:2] z8 | 
[V:3] B4A4- | 
[V:4] A,G,G,4^F,E, | 
[V:1] c4B4 | 
[V:2] z4D4 | 
[V:3] A4G4 | 
[V:4] ^F,4G,4 | 
[V:1] A4z4 | 
[V:2] E2G2F2E2 | 
[V:3] z2c2d2e2 | 
[V:4] E,4D,2A,2- | 
[V:1] c4d2e2 | 
[V:2] A4z4 | 
[V:3] f6e2 | 
[V:4] A,2G,2B,2C2 | 
[V:1] f6e2 | 
[V:2] A8 | 
[V:3] d4z2c2 | 
[V:4] D4A,4 | 
[V:1] d4z2c2 | 
[V:2] F8 | 
[V:3] d2cBA4 | 
[V:4] B,4F,4 | 
[V:1] d2cBA4 | 
[V:2] B4c4 | 
[V:3] G2g3^f^fe | 
[V:4] z8 | 
[V:1] G2B2c2d2 | 
[V:2] B4z4 | 
[V:3] g2e4d2 | 
[V:4] G,4A,2B,2 | 
[V:1] c2e4d2 | 
[V:2] G4A2B2 | 
[V:3] e4z4 | 
[V:4] C6B,2 | 
[V:1] e2f2g2e2 | 
[V:2] c6B2 | 
[V:3] z8 | 
[V:4] A,4z2G,2 | 
[V:1] f2ed^c3=B | 
[V:2] A4z2G2 | 
[V:3] z8 | 
[V:4] A,2G,F,E,4 | 
[V:1] d4z4 | 
[V:2] A2GFE4 | 
[V:3] A4c2c2 | 
[V:4] D,4A,4 | 
[V:1] z4A4 | 
[V:2] D2d4cB | 
[V:3] d8 | 
[V:4] D,8 | 
[V:1] c2c2d4- | 
[V:2] A2B4AG | 
[V:3] c4B2B2- | 
[V:4] z8 | 
[V:1] d4c4 | 
[V:2] F2G4^F2 | 
[V:3] B2AGA4 | 
[V:4] z8 | 
[V:1] B2B4AG | 
[V:2] G6FE | 
[V:3] G2d2e2g2- | 
[V:4] G,8 | 
[V:1] A4G2c2- | 
[V:2] D3CE4 | 
[V:3] g2f2g2e2 | 
[V:4] z4E,4 | 
[V:1] c2=B2c4- | 
[V:2] z8 | 
[V:3] d4c4 | 
[V:4] G,2G,2A,4- | 
[V:1] c2BAB3c | 
[V:2] E4G2G2 | 
[V:3] z2c2d2e2 | 
[V:4] A,4G,4 | 
[V:1] A4z4 | 
[V:2] A8 | 
[V:3] f2edc2d2- | 
[V:4] F,2F,4E,D, | 
[V:1] z4A4- | 
[V:2] G4F2F2- | 
[V:3] d2^c2d4 | 
[V:4] E,4D,2C,B,, | 
[V:1] A2GFG2FE | 
[V:2] F2EDE4 | 
[V:3] c2BAB2A2- | 
[V:4] A,,2D,4C,2 | 
[V:1] F2G4^F2 | 
[V:2] D8- | 
[V:3] A2G2A4 | 
[V:4] D,8 | 
[V:1] G8 |]  
[V:2] D8 |]  
[V:3] G8 |]  
[V:4] G,8 |]  



